packages/astro-components-stencil/src/icons/alarm-off.svg

<svg width="24" height="24" viewBox="0 0 24 24" fill="none" xmlns="http://www.w3.org/2000/svg">
<path fill-rule="evenodd" clip-rule="evenodd" d="M19.91 6.55998C20.33 6.90998 20.94 6.84998 21.29 6.43998L21.32 6.40998C21.67 5.98998 21.61 5.37998 21.2 5.02998L18.1 2.43998C17.68 2.08998 17.07 2.14998 16.72 2.55998L16.69 2.58998C16.34 3.00998 16.4 3.61998 16.81 3.96998L19.91 6.55998ZM3.71001 2.78998C3.33001 2.40998 2.71001 2.40998 2.32001 2.78998L2.30001 2.81998C1.91001 3.20998 1.91001 3.82998 2.30001 4.20998L2.98001 4.88998L2.81001 5.02998C2.39001 5.36998 2.34001 5.98998 2.68001 6.40998L2.71001 6.43998C3.06001 6.85998 3.67001 6.90998 4.09001 6.55998L4.40001 6.30998L5.20001 7.10998C3.83001 8.68998 3.00001 10.75 3.00001 13C3.00001 17.97 7.03001 22 12 22C14.25 22 16.31 21.17 17.89 19.8L19.3 21.21C19.68 21.59 20.3 21.59 20.69 21.21L20.72 21.18C21.1 20.8 21.1 20.18 20.72 19.79L3.71001 2.78998ZM10.04 6.28998C10.66 6.10998 11.32 5.99998 12 5.99998C15.86 5.99998 19 9.13998 19 13C19 13.68 18.89 14.34 18.71 14.96L20.27 16.52C20.74 15.44 21 14.25 21 13C21 8.02998 16.97 3.99998 12 3.99998C10.75 3.99998 9.56001 4.25998 8.47001 4.71998L10.04 6.28998ZM5.00001 13C5.00001 16.86 8.14001 20 12 20C13.7 20 15.26 19.39 16.47 18.38L6.62001 8.52998C5.61001 9.73998 5.00001 11.3 5.00001 13ZM7.32001 2.58998C7.58001 2.90998 7.61001 3.33998 7.43001 3.67998L6.09001 2.33998C6.49001 2.12998 6.99001 2.19998 7.29001 2.55998L7.32001 2.58998Z" fill="black"/>
</svg>

<svg xmlns="http://www.w3.org/2000/svg" viewBox="0 0 24 24"><g xmlns="http://www.w3.org/2000/svg" id="alarm-off" fill-rule="nonzero">
            <path d="M10.04 6.29C10.66 6.11 11.32 6 12 6c3.86 0 7 3.14 7 7 0 .68-.11 1.34-.29 1.96l1.56 1.56c.47-1.08.73-2.27.73-3.52A9 9 0 008.47 4.72l1.57 1.57zm-6.33-3.5a.99.99 0 00-1.39 0l-.02.03a.972.972 0 000 1.39l.68.68-.17.14c-.42.34-.47.96-.13 1.38l.03.03c.35.42.96.47 1.38.12l.31-.25.8.8A8.964 8.964 0 003 13a9 9 0 009 9c2.25 0 4.31-.83 5.89-2.2l1.41 1.41c.38.38 1 .38 1.39 0l.03-.03c.38-.38.38-1 0-1.39l-17.01-17zM12 20c-3.86 0-7-3.14-7-7 0-1.7.61-3.26 1.62-4.47l9.85 9.85A6.956 6.956 0 0112 20zm7.91-13.44c.42.35 1.03.29 1.38-.12l.03-.03a.981.981 0 00-.12-1.38l-3.1-2.59a.981.981 0 00-1.38.12l-.03.03a.981.981 0 00.12 1.38l3.1 2.59zM7.43 3.68c.18-.34.15-.77-.11-1.09l-.03-.03c-.3-.36-.8-.43-1.2-.22l1.34 1.34z"/>
        </g></svg>
